vsi/file-symlink-directory_dark.svg

<svg viewBox="0 0 16 16" fill="none" xmlns="http://www.w3.org/2000/svg" height="1em" width="1em">
  <path fill-rule="evenodd" clip-rule="evenodd" d="M7.71002 3H14.5L15.01 3.5V9V13.5L14.51 14H1.51001L1.01001 13.5V6.5V2.5L1.51001 2H6.51001L6.85999 2.15002L7.71002 3ZM13.99 13V11.49L14 7.48999V5.98999H7.70001L6.84003 6.84998L6.48999 7H2V7.48999V11.49V13H13.99ZM7.48999 5H13.99L14 4.01001H7.5L7.14001 3.85999L6.28998 3.01001H2V6.01001H6.28003L7.14001 5.15002L7.48999 5ZM9.78005 9.06995L8.42001 7.69995L9.16 7.01001L11.38 9.22998V9.93994L9.09005 12.15L8.39004 11.4301L9.79 10.08H8.42001C7.90851 10.103 7.42536 10.3213 7.07003 10.6899C6.89788 10.8612 6.76219 11.0656 6.6711 11.2908C6.58002 11.5159 6.5354 11.7572 6.54 12H5.54C5.53377 11.6293 5.60231 11.2612 5.74148 10.9176C5.88065 10.574 6.08758 10.2619 6.35 10C6.87439 9.44728 7.58943 9.11474 8.35 9.06995H9.78005Z" fill="#C5C5C5"/>
</svg>

<svg viewBox="0 0 16 16" fill="none" xmlns="http://www.w3.org/2000/svg" height="1em" width="1em">
  <path fill-rule="evenodd" clip-rule="evenodd" d="M7.71 3h6.79l.51.5v10l-.5.5h-13l-.5-.5v-11l.5-.5h5l.35.15.85.85Zm6.28 10v-1.51l.01-4v-1.5H7.7l-.86.86-.35.15H2v6h11.99Zm-6.5-8h6.5l.01-.99H7.5l-.36-.15-.85-.85H2v3h4.28l.86-.86.35-.15Zm2.29 4.07L8.42 7.7l.74-.69 2.22 2.22v.71l-2.29 2.21-.7-.72 1.4-1.35H8.42a2 2 0 0 0-1.35.61A1.8 1.8 0 0 0 6.54 12h-1a2.76 2.76 0 0 1 .81-2 3 3 0 0 1 2-.93h1.43Z" fill="#C5C5C5"/>
</svg>
